storage/app/icons/phosphoricons/bold/tree-view-bold.svg

<svg xmlns="http://www.w3.org/2000/svg" fill="currentColor" viewBox="0 0 256 256"><path d="M176 156h32a20 20 0 0 0 20-20v-32a20 20 0 0 0-20-20h-32a20 20 0 0 0-20 20v4H92V84h4a20 20 0 0 0 20-20V32a20 20 0 0 0-20-20H64a20 20 0 0 0-20 20v32a20 20 0 0 0 20 20h4v108a28 28 0 0 0 28 28h60v4a20 20 0 0 0 20 20h32a20 20 0 0 0 20-20v-32a20 20 0 0 0-20-20h-32a20 20 0 0 0-20 20v4H96a4 4 0 0 1-4-4v-60h64v4a20 20 0 0 0 20 20M68 36h24v24H68Zm112 160h24v24h-24Zm0-88h24v24h-24Z"/></svg>

<svg xmlns="http://www.w3.org/2000/svg" viewBox="0 0 256 256" fill="currentColor"><path d="M176,156h32a20,20,0,0,0,20-20V104a20,20,0,0,0-20-20H176a20,20,0,0,0-20,20v4H92V84h4a20,20,0,0,0,20-20V32A20,20,0,0,0,96,12H64A20,20,0,0,0,44,32V64A20,20,0,0,0,64,84h4V192a28,28,0,0,0,28,28h60v4a20,20,0,0,0,20,20h32a20,20,0,0,0,20-20V192a20,20,0,0,0-20-20H176a20,20,0,0,0-20,20v4H96a4,4,0,0,1-4-4V132h64v4A20,20,0,0,0,176,156ZM68,36H92V60H68ZM180,196h24v24H180Zm0-88h24v24H180Z"/></svg>
